icons/svg/subway/subway_praha.svg

<?xml version="1.0" encoding="UTF-8" standalone="no"?>
<svg
   xmlns:dc="http://purl.org/dc/elements/1.1/"
   xmlns:cc="http://creativecommons.org/ns#"
   xmlns:rdf="http://www.w3.org/1999/02/22-rdf-syntax-ns#"
   xmlns:svg="http://www.w3.org/2000/svg"
   xmlns="http://www.w3.org/2000/svg"
   xmlns:sodipodi="http://sodipodi.sourceforge.net/DTD/sodipodi-0.dtd"
   xmlns:inkscape="http://www.inkscape.org/namespaces/inkscape"
   width="16"
   height="16"
   id="svg2"
   version="1.1"
   inkscape:version="0.91 r"
   sodipodi:docname="subway_praha.svg">
  <defs
     id="defs13" />
  <sodipodi:namedview
     pagecolor="#ffffff"
     bordercolor="#666666"
     borderopacity="1"
     objecttolerance="10"
     gridtolerance="10"
     guidetolerance="10"
     inkscape:pageopacity="0"
     inkscape:pageshadow="2"
     inkscape:window-width="1920"
     inkscape:window-height="1004"
     id="namedview11"
     showgrid="true"
     inkscape:zoom="22.627417"
     inkscape:cx="8.2683732"
     inkscape:cy="10.19632"
     inkscape:window-x="1680"
     inkscape:window-y="0"
     inkscape:window-maximized="1"
     inkscape:current-layer="svg2"
     showguides="false">
    <sodipodi:guide
       position="0,0"
       orientation="0,580"
       id="guide2989" />
    <sodipodi:guide
       position="580,0"
       orientation="-580,0"
       id="guide2991" />
    <sodipodi:guide
       position="580,580"
       orientation="0,-580"
       id="guide2993" />
    <sodipodi:guide
       position="0,580"
       orientation="580,0"
       id="guide2995" />
    <sodipodi:guide
       position="0,0"
       orientation="0,580"
       id="guide2997" />
    <sodipodi:guide
       position="580,0"
       orientation="-580,0"
       id="guide2999" />
    <sodipodi:guide
       position="580,580"
       orientation="0,-580"
       id="guide3001" />
    <sodipodi:guide
       position="0,580"
       orientation="580,0"
       id="guide3003" />
    <inkscape:grid
       type="xygrid"
       id="grid3013"
       empspacing="5"
       visible="true"
       enabled="true"
       snapvisiblegridlinesonly="true" />
  </sodipodi:namedview>
  <metadata
     id="metadata2975">image/svg+xmlen<rdf:RDF>
  <cc:Work
     rdf:about="">
    <dc:format>image/svg+xml</dc:format>
    <dc:type
       rdf:resource="http://purl.org/dc/dcmitype/StillImage" />
    <dc:title />
  </cc:Work>
</rdf:RDF>
</metadata>
  <path
     style="opacity:1;fill:#fefefe;fill-opacity:1"
     d="M 0.91210938,3.9316406 C 0.46074454,3.9311015 0.23236761,4.4750315 0.54882812,4.796875 L 2.2519531,6.5136719 c 0.057192,0.058148 0.1275287,0.1016901 0.2050781,0.1269531 0.024698,0.077358 0.06756,0.1476773 0.125,0.2050781 l 1.9296876,1.9453125 c 0.057747,0.058414 0.1287822,0.1019733 0.2070312,0.1269532 0.024133,0.077168 0.066314,0.1474704 0.1230469,0.2050781 l 2.7695312,2.7949221 c 0.1977081,0.200643 0.5208351,0.202392 0.7207031,0.0039 L 11.123047,9.1484375 c 0.05718,-0.056844 0.100022,-0.1264664 0.125,-0.203125 0.07507,-0.024964 0.143286,-0.067096 0.199219,-0.1230469 l 1.953125,-1.9335937 c 0.05841,-0.057747 0.101973,-0.1287823 0.126953,-0.2070313 0.07717,-0.024133 0.14747,-0.066314 0.205078,-0.1230468 l 1.714844,-1.703125 c 0.320483,-0.3189329 0.09666,-0.866197 -0.355469,-0.8691407 L 11.111328,3.9707031 C 11.053433,3.9707267 10.995966,3.9806347 10.941406,4 10.888701,3.9812804 10.83327,3.9713819 10.777344,3.9707031 L 9.5214844,3.9648431 C 9.3822366,3.9641999 9.2488142,4.0206749 9.1523438,4.1210931 L 7.9941406,5.3359375 6.8476562,4.1132812 C 6.7518555,4.0114236 6.6183462,3.9534989 6.4785156,3.953125 l -1.2558594,-0.00391 c -0.055817,5.06e-5 -0.1112458,0.00929 -0.1640624,0.027344 -0.053324,-0.018932 -0.1094327,-0.028834 -0.1660157,-0.029297 z"
     id="path4166"
     inkscape:connector-curvature="0"
     sodipodi:nodetypes="cccccccccccccccccccccccccccccc" />
  <path
     inkscape:connector-curvature="0"
     style="fill:#d9261c"
     d="M 5.2032735,8.7656024 10.763074,8.7868533 7.9734321,11.560114 5.2032735,8.7656024 Z m 7.8402225,-2.2392418 -1.943893,-0.00751 -0.0089,1.9425646 1.952748,-1.9350374 z M 2.9427781,6.4873947 4.8822433,6.494924 4.8738259,8.4343886 2.9427738,6.4873962 Z m 12.1464539,-1.992867 -3.980774,-0.01533 -0.0089,1.7097493 2.275994,0.00885 1.713636,-1.7032756 z M 0.91076745,4.4398858 4.889771,4.4552021 4.8831289,6.1650356 2.6137773,6.1561797 0.91076745,4.4398858 Z m 7.08037665,1.6357043 1.5276613,-1.6023083 1.2575526,0.00437 -0.01329,3.9788704 -1.1291398,-0.00447 0.00885,-2.4624126 -1.6560733,1.6755562 -1.6472172,-1.6879547 -0.00885,2.4624122 -1.1255983,-0.00447 0.015498,-3.9787687 1.2562244,0.0051 1.5143769,1.6139805 z"
     id="path4" />
</svg>

<svg width="16" height="16" viewBox="0 0 16 16" fill="none" xmlns="http://www.w3.org/2000/svg">
<path d="M0.912112 3.93164C0.460747 3.9311 0.23237 4.47503 0.548831 4.79688L2.25196 6.51367C2.30915 6.57182 2.37948 6.61536 2.45703 6.64063C2.48173 6.71798 2.52459 6.7883 2.58203 6.8457L4.51172 8.79102C4.56947 8.84943 4.6405 8.89299 4.71875 8.91797C4.74289 8.99514 4.78507 9.06544 4.8418 9.12305L7.61133 11.918C7.80904 12.1186 8.13217 12.1204 8.33203 11.9219L11.123 9.14844C11.1802 9.09159 11.2231 9.02197 11.248 8.94531C11.3231 8.92035 11.3913 8.87822 11.4473 8.82227L13.4004 6.88867C13.4588 6.83093 13.5024 6.75989 13.5273 6.68164C13.6045 6.65751 13.6748 6.61533 13.7324 6.55859L15.4473 4.85547C15.7678 4.53654 15.5439 3.98927 15.0918 3.98633L11.1113 3.9707C11.0534 3.97073 10.996 3.98064 10.9414 4C10.8887 3.98128 10.8333 3.97138 10.7773 3.9707L9.52149 3.96484C9.38224 3.9642 9.24882 4.02068 9.15235 4.12109L7.99414 5.33594L6.84766 4.11328C6.75186 4.01142 6.61835 3.9535 6.47852 3.95313L5.22266 3.94922C5.16684 3.94927 5.11141 3.95851 5.0586 3.97656C5.00527 3.95763 4.94916 3.94773 4.89258 3.94726L0.912112 3.93164Z" fill="#FEFEFE"/>
<path d="M5.20327 8.7656L10.7631 8.78685L7.97343 11.5601L5.20327 8.7656ZM13.0435 6.52636L11.0996 6.51885L11.0907 8.46141L13.0435 6.52637L13.0435 6.52636ZM2.94278 6.48739L4.88224 6.49492L4.87383 8.43438L2.94277 6.48739L2.94278 6.48739ZM15.0892 4.49452L11.1085 4.47919L11.0996 6.18894L13.3756 6.19779L15.0892 4.49452L15.0892 4.49452ZM0.910767 4.43988L4.88977 4.4552L4.88313 6.16503L2.61378 6.15617L0.910767 4.43988ZM7.99114 6.07558L9.5188 4.47328L10.7764 4.47765L10.7631 8.45652L9.63393 8.45205L9.64278 5.98963L7.9867 7.66519L6.33949 5.97724L6.33064 8.43965L5.20504 8.43518L5.22054 4.45641L6.47676 4.46151L7.99114 6.07549L7.99114 6.07558Z" fill="#D9261C"/>
</svg>
